X:1
T:Title
%%score 1 2 3
L:1/8
Q:1/4=120
M:4/4
K:C
V:1 treble nm="Grand Piano"
V:2 bass nm="Grand Piano, Melody"
V:3 bass nm="Grand Piano"
V:1
 c4 d2 d2 | c4 f4 | dc A2 c4 | A4 G2 A2 | c4 f3 d | c2 c2 c4 | c4 f2 f2 | d3 c A3 A | c3 c f3 c | %9
 d c3 G3 A | c6 c2 | c3 d f3 f | f4 c2 A2 | c3 c f3 c | d c3 c3 d | f6 d2 | c3 c c4 |] %17
V:2
 F,4 F,G, A,2 | C4 F,4 | DCDE F4 | F3 D C2 D2 | C4[K:bass] A,3 G, | F,2 F,G, F,4 | C4 CA, C2 | %7
 F3 C F3 D | C3 C D3 C | D F3 C3[K:bass] A, | G,2 F,4 F,2 | G,3 A, F,3 F, | %12
 F,3 A,[K:treble] C2 F>D | C3 C D3 C | D F3 C3[K:bass] A, | G,2 F,4 F,2 | G,3 A, F,4 |] %17
V:3
 F,4 D,2 D,2 | C,4 D,4 | F,G,A,G, F,4 | F,4 [C,E,]2 D,2 | C,4 D,3 E, | F,2 F,G, F,4 | F,4 F,2 F,2 | %7
 F,3 C, D,3 D, | C,3 C, F,3 G, | A, F,3 C,3 C, | C,2 F,4 F,2 | C,3 C, F,3 F, | A,3 G, F,2 C,2 | %13
 C,3 C, F,3 G, | A, F,3 F,3 F, | G,2 A,4 F,2 | C,3 D, F,4 |] %17

